24x24/apps/icq.svg

<svg xmlns="http://www.w3.org/2000/svg" width="24" height="24" version="1.1">
 <rect style="opacity:0.2" width="20" height="20" x="2" y="2.5" rx="10"/>
 <rect style="fill:#17191e" width="20" height="20" x="2" y="2" rx="10"/>
 <path style="opacity:0.2" d="m 10.863281,5.5037169 c -1.1018341,0.07484 -1.9340956,1.0289214 -1.8593748,2.1289063 0.025254,0.3723348 0.151247,0.712075 0.3496094,0.9980469 l 0.9199224,1.3535156 c 0.176251,0.3281063 0.533358,0.5405913 0.929687,0.5136723 0.376383,-0.02555 0.689962,-0.259599 0.832031,-0.5820317 l 0.765625,-1.546875 h -0.002 c 0.147893,-0.3030996 0.21981,-0.6473298 0.195313,-1.0078125 -0.07468,-1.0999807 -1.027073,-1.932261 -2.128907,-1.8574219 z m 5.212891,1.9960938 c -0.320215,-0.0061 -0.647087,0.053207 -0.962891,0.1816406 -0.434274,0.1766515 -0.791472,0.4644949 -1.052734,0.8183594 l -1.283203,1.6640623 c -0.01491,0.01823 -0.02914,0.03567 -0.04297,0.05469 l -0.0059,0.0078 h 0.002 c -0.235096,0.329179 -0.30338,0.770499 -0.142578,1.175782 0.175668,0.442772 0.57687,0.724416 1.015625,0.763672 l 2.09375,0.314453 -0.002,-0.0039 c 0.412271,0.05876 0.843956,0.01205 1.257813,-0.15625 1.263177,-0.513737 1.875479,-1.968807 1.367187,-3.2499998 -0.381184,-0.960831 -1.283498,-1.552011 -2.24414,-1.5703125 z M 8.109375,9.5017638 C 7.1710951,9.4607808 6.3008523,10.076241 6.0625,11.013483 c -0.2724028,1.071089 0.3834403,2.156933 1.4648438,2.425781 0.3542507,0.08808 0.7089704,0.078 1.0371093,-0.01367 l 1.6289059,-0.46875 c 0.367505,-0.06856 0.680004,-0.341864 0.777344,-0.724609 0.09308,-0.365955 -0.03492,-0.734008 -0.300781,-0.96875 L 9.421875,10.056451 v 0.002 C 9.1766343,9.8242724 8.8678786,9.6484387 8.5136719,9.5603576 8.3784906,9.5267512 8.2434151,9.5076171 8.109375,9.5017638 Z m 2.681641,3.9980472 c -0.219736,1.7e-4 -0.436209,0.05735 -0.625,0.166016 l -1.8671879,0.927734 0.00391,0.002 c -0.36689,0.185337 -0.6891513,0.461956 -0.9257813,0.820313 -0.722252,1.093889 -0.3734841,2.536801 0.7792969,3.224609 1.1528205,0.687809 2.672239,0.359515 3.394531,-0.734375 0.246686,-0.373622 0.36952,-0.787962 0.376953,-1.199219 l 0.0625,-1.90625 c 0.06088,-0.431603 -0.142726,-0.878034 -0.55664,-1.125 -0.19998,-0.119236 -0.422841,-0.175951 -0.642578,-0.175781 z m 3.1875,0.0039 c -0.196516,0.01366 -0.391577,0.08316 -0.560547,0.212891 -0.328269,0.252122 -0.470941,0.662543 -0.400391,1.046875 l 0.216797,1.84375 0.002,-0.002 c 0.04527,0.363754 0.180939,0.719888 0.414063,1.033203 0.711973,0.957042 2.054359,1.146523 2.998047,0.421875 0.943726,-0.724647 1.131932,-2.08788 0.419921,-3.044922 -0.24584,-0.330451 -0.566181,-0.569713 -0.919921,-0.710937 l -1.601563,-0.677735 c -0.174833,-0.0955 -0.371843,-0.136711 -0.568359,-0.123047 z"/>
 <path style="fill:#39e11e" d="M 10.863281 5.0039062 C 9.7614469 5.0787463 8.9291854 6.0328276 9.0039062 7.1328125 C 9.0291605 7.5051473 9.1551532 7.8448875 9.3535156 8.1308594 L 10.273438 9.484375 C 10.449689 9.8124811 10.806796 10.024966 11.203125 9.9980469 C 11.579508 9.9724969 11.893087 9.7384485 12.035156 9.4160156 L 12.800781 7.8691406 L 12.798828 7.8691406 C 12.946721 7.566041 13.018638 7.2218108 12.994141 6.8613281 C 12.919459 5.7613474 11.967068 4.9290671 10.865234 5.0039062 L 10.863281 5.0039062 z M 16.076172 7 C 15.755957 6.9939 15.429085 7.0532066 15.113281 7.1816406 C 14.679007 7.3582921 14.321809 7.6461355 14.060547 8 L 12.777344 9.6640625 C 12.762434 9.6822925 12.748205 9.69973 12.734375 9.71875 L 12.728516 9.7265625 L 12.730469 9.7265625 C 12.495373 10.055741 12.427089 10.497061 12.587891 10.902344 C 12.763559 11.345116 13.164761 11.62676 13.603516 11.666016 L 15.697266 11.980469 L 15.695312 11.976562 C 16.107583 12.035322 16.539268 11.988613 16.953125 11.820312 C 18.216302 11.306575 18.828604 9.8515055 18.320312 8.5703125 C 17.939128 7.6094815 17.036814 7.0183015 16.076172 7 z M 8.109375 9.0019531 C 7.1710951 8.9609701 6.3008523 9.5764298 6.0625 10.513672 C 5.7900972 11.584761 6.4459403 12.670605 7.5273438 12.939453 C 7.8815945 13.027533 8.2363142 13.017451 8.5644531 12.925781 L 10.193359 12.457031 C 10.560864 12.388471 10.873363 12.115167 10.970703 11.732422 C 11.063783 11.366467 10.935787 10.998414 10.669922 10.763672 L 9.421875 9.5566406 L 9.421875 9.5585938 C 9.1766343 9.3244617 8.8678786 9.148628 8.5136719 9.0605469 C 8.3784906 9.0269405 8.2434151 9.0078064 8.109375 9.0019531 z M 10.791016 13 C 10.57128 13.00017 10.354807 13.05735 10.166016 13.166016 L 8.2988281 14.09375 L 8.3027344 14.095703 C 7.9358444 14.28104 7.6135831 14.557659 7.3769531 14.916016 C 6.6547011 16.009905 7.003469 17.452817 8.15625 18.140625 C 9.3090705 18.828434 10.828489 18.50014 11.550781 17.40625 C 11.797467 17.032628 11.920301 16.618288 11.927734 16.207031 L 11.990234 14.300781 C 12.051114 13.869178 11.847508 13.422747 11.433594 13.175781 C 11.233614 13.056545 11.010753 12.99983 10.791016 13 z M 13.978516 13.003906 C 13.782 13.017566 13.586939 13.087066 13.417969 13.216797 C 13.0897 13.468919 12.947028 13.87934 13.017578 14.263672 L 13.234375 16.107422 L 13.236328 16.105469 C 13.281598 16.469223 13.417267 16.825357 13.650391 17.138672 C 14.362364 18.095714 15.70475 18.285195 16.648438 17.560547 C 17.592164 16.8359 17.78037 15.472667 17.068359 14.515625 C 16.822519 14.185174 16.502178 13.945912 16.148438 13.804688 L 14.546875 13.126953 C 14.372042 13.031453 14.175032 12.990242 13.978516 13.003906 z"/>
 <path style="opacity:0.1;fill:#f4f4f7" d="M 12,2 C 6.46,2 2,6.46 2,12 2,12.08394 2.00382,12.166571 2.00586,12.25 2.1381952,6.8269315 6.543937,2.5 12,2.5 c 5.456063,0 9.861805,4.3269315 9.99414,9.75 C 21.996176,12.166571 22,12.083937 22,12 22,6.46 17.54,2 12,2 Z"/>
 <path style="fill:#f4f4f7;opacity:0.2" d="M 10.863281 5.0039062 C 9.7614471 5.0787463 8.9291855 6.0328276 9.0039062 7.1328125 C 9.0058593 7.1616066 9.0183395 7.1864493 9.0214844 7.2148438 C 9.1516417 6.3009298 9.9041511 5.5690534 10.863281 5.5039062 L 10.865234 5.5039062 C 11.920465 5.4322325 12.829323 6.1958895 12.970703 7.2265625 C 12.984629 7.1062294 13.002656 6.9866337 12.994141 6.8613281 C 12.919459 5.7613474 11.967068 4.9290671 10.865234 5.0039062 L 10.863281 5.0039062 z M 16.076172 7 C 15.755957 6.9939 15.429085 7.0532066 15.113281 7.1816406 C 14.679007 7.3582921 14.321809 7.6461355 14.060547 8 L 12.777344 9.6640625 C 12.762434 9.6822925 12.748205 9.69973 12.734375 9.71875 L 12.728516 9.7265625 L 12.730469 9.7265625 C 12.535517 9.9995313 12.465183 10.348706 12.535156 10.691406 C 12.570448 10.524659 12.631778 10.364748 12.730469 10.226562 L 12.728516 10.226562 L 12.734375 10.21875 C 12.748205 10.19973 12.762434 10.182293 12.777344 10.164062 L 14.060547 8.5 C 14.321809 8.1461355 14.679007 7.8582921 15.113281 7.6816406 C 15.429085 7.553207 15.755957 7.4939 16.076172 7.5 C 17.036814 7.5183015 17.939128 8.1094815 18.320312 9.0703125 C 18.409163 9.2942676 18.451731 9.5233287 18.474609 9.7519531 C 18.513704 9.362171 18.474615 8.9592461 18.320312 8.5703125 C 17.939128 7.6094815 17.036814 7.0183015 16.076172 7 z M 8.109375 9.0019531 C 7.1710951 8.9609701 6.3008523 9.5764297 6.0625 10.513672 C 5.9966042 10.772774 5.9858573 11.032195 6.0214844 11.28125 C 6.031577 11.192027 6.0397375 11.103174 6.0625 11.013672 C 6.3008523 10.07643 7.1710951 9.4609701 8.109375 9.5019531 C 8.2434151 9.5078064 8.3784906 9.5269405 8.5136719 9.5605469 C 8.8678786 9.648628 9.1766343 9.8244152 9.421875 10.058594 L 9.421875 10.056641 L 10.669922 11.263672 C 10.815804 11.392478 10.913774 11.563288 10.962891 11.75 C 10.964635 11.743672 10.969078 11.738811 10.970703 11.732422 C 11.063783 11.366467 10.935787 10.998414 10.669922 10.763672 L 9.421875 9.5566406 L 9.421875 9.5585938 C 9.1766343 9.3244616 8.8678786 9.148628 8.5136719 9.0605469 C 8.3784906 9.0269405 8.2434151 9.0078064 8.109375 9.0019531 z M 10.791016 13 C 10.57128 13.00017 10.354807 13.05735 10.166016 13.166016 L 8.2988281 14.09375 L 8.3027344 14.095703 C 7.9358444 14.28104 7.6135831 14.557659 7.3769531 14.916016 C 7.0735065 15.375602 6.9685789 15.895565 7.0234375 16.396484 C 7.0632378 16.05866 7.1741053 15.723239 7.3769531 15.416016 C 7.6135831 15.057659 7.9358444 14.78104 8.3027344 14.595703 L 8.2988281 14.59375 L 10.166016 13.666016 C 10.354807 13.55735 10.57128 13.50017 10.791016 13.5 C 11.010753 13.49983 11.233614 13.556545 11.433594 13.675781 C 11.742052 13.859826 11.931931 14.153799 11.984375 14.470703 L 11.990234 14.300781 C 12.051114 13.869178 11.847508 13.422747 11.433594 13.175781 C 11.233614 13.056545 11.010753 12.99983 10.791016 13 z M 13.978516 13.003906 C 13.782 13.017566 13.586939 13.087066 13.417969 13.216797 C 13.0897 13.468919 12.947028 13.87934 13.017578 14.263672 L 13.029297 14.363281 C 13.077739 14.11511 13.203703 13.881361 13.417969 13.716797 C 13.586939 13.587066 13.782 13.517566 13.978516 13.503906 C 14.175032 13.490242 14.372042 13.531453 14.546875 13.626953 L 16.148438 14.304688 C 16.502177 14.445912 16.822519 14.685174 17.068359 15.015625 C 17.309885 15.340269 17.440467 15.712501 17.480469 16.089844 C 17.546306 15.549325 17.416841 14.984032 17.068359 14.515625 C 16.822519 14.185174 16.502178 13.945912 16.148438 13.804688 L 14.546875 13.126953 C 14.372042 13.031453 14.175032 12.990242 13.978516 13.003906 z"/>
</svg>

<svg xmlns="http://www.w3.org/2000/svg" width="24" height="24"><rect style="opacity:.2" width="20" height="20" x="2" y="2.5" rx="10"/><rect style="fill:#17191e" width="20" height="20" x="2" y="2" rx="10"/><path style="opacity:.2" d="M10.863 5.504a2 2 0 0 0-1.51 3.127l.92 1.353a.98.98 0 0 0 1.762-.068l.766-1.547h-.002a1.998 1.998 0 0 0-1.934-2.865zM16.076 7.5a2.454 2.454 0 0 0-2.016 1l-1.283 1.664-.043.055-.006.007h.002c-.235.33-.303.77-.142 1.176a1.21 1.21 0 0 0 1.016.764l2.093.314-.002-.004a2.42 2.42 0 0 0 1.258-.156c1.263-.514 1.876-1.969 1.367-3.25a2.47 2.47 0 0 0-2.244-1.57zM8.11 9.502a2.02 2.02 0 0 0-2.046 1.511 1.996 1.996 0 0 0 1.464 2.426c.355.088.71.078 1.037-.013l1.63-.47a.987.987 0 0 0 .777-.724.97.97 0 0 0-.301-.969l-1.248-1.207v.002a2.015 2.015 0 0 0-1.313-.556zm2.682 3.998c-.22 0-.436.057-.625.166l-1.867.928.004.002c-.367.185-.69.462-.926.82-.722 1.094-.374 2.537.78 3.224 1.152.688 2.671.36 3.394-.734.246-.374.37-.788.377-1.2l.062-1.905a1.13 1.13 0 0 0-.556-1.125c-.2-.12-.423-.176-.643-.176zm3.188.004a1.035 1.035 0 0 0-.561.213c-.328.252-.471.662-.4 1.046l.216 1.844.002-.002c.046.364.181.72.414 1.033a2.118 2.118 0 0 0 2.998.422 2.197 2.197 0 0 0 .42-3.045 2.128 2.128 0 0 0-.92-.71l-1.601-.678a1.034 1.034 0 0 0-.568-.123z"/><path style="fill:#39e11e" d="M10.863 5.004a2 2 0 0 0-1.51 3.127l.92 1.353a.98.98 0 0 0 1.762-.068l.766-1.547h-.002a1.998 1.998 0 0 0-1.934-2.865h-.002zM16.076 7a2.454 2.454 0 0 0-2.016 1l-1.283 1.664-.043.055-.005.008h.001c-.235.329-.303.77-.142 1.175a1.21 1.21 0 0 0 1.016.764l2.093.314-.002-.003a2.42 2.42 0 0 0 1.258-.157c1.263-.513 1.876-1.968 1.367-3.25A2.47 2.47 0 0 0 16.076 7zM8.11 9.002a2.02 2.02 0 0 0-2.046 1.512 1.996 1.996 0 0 0 1.464 2.425c.355.089.71.078 1.037-.013l1.63-.469a.987.987 0 0 0 .777-.725.97.97 0 0 0-.301-.968L9.422 9.557v.002a2.015 2.015 0 0 0-1.313-.557zM10.791 13c-.22 0-.436.057-.625.166l-1.867.928.004.002c-.367.185-.69.462-.926.82-.722 1.094-.374 2.537.78 3.225 1.152.687 2.671.36 3.394-.735.246-.373.37-.788.377-1.199l.062-1.906a1.13 1.13 0 0 0-.556-1.125c-.2-.12-.423-.176-.643-.176zm3.188.004a1.035 1.035 0 0 0-.561.213c-.328.252-.471.662-.4 1.047l.216 1.843.002-.002c.046.364.181.72.414 1.034a2.118 2.118 0 0 0 2.998.422 2.197 2.197 0 0 0 .42-3.045 2.128 2.128 0 0 0-.92-.711l-1.601-.678a1.034 1.034 0 0 0-.568-.123z"/><path style="opacity:.1;fill:#f4f4f7" d="M12 2C6.46 2 2 6.46 2 12c0 .084.004.167.006.25A9.976 9.976 0 0 1 12 2.5a9.976 9.976 0 0 1 9.994 9.75c.002-.083.006-.166.006-.25 0-5.54-4.46-10-10-10z"/><path style="fill:#f4f4f7;opacity:.2" d="M10.863 5.004a2 2 0 0 0-1.86 2.129c.003.029.015.053.018.082a1.998 1.998 0 0 1 1.842-1.711h.002a1.991 1.991 0 0 1 2.106 1.723c.014-.12.032-.24.023-.366a1.998 1.998 0 0 0-2.129-1.857h-.002zM16.076 7a2.454 2.454 0 0 0-2.016 1l-1.283 1.664-.043.055-.005.008h.001a1.232 1.232 0 0 0-.195.964c.035-.166.097-.326.195-.464h-.001l.005-.008c.014-.02.028-.037.043-.055L14.061 8.5a2.454 2.454 0 0 1 2.015-1 2.47 2.47 0 0 1 2.244 1.57c.09.224.132.453.155.682A2.47 2.47 0 0 0 16.077 7zM8.11 9.002a2.02 2.02 0 0 0-2.046 1.512c-.066.259-.077.518-.042.767.01-.089.019-.178.042-.267a2.02 2.02 0 0 1 2.45-1.453c.355.088.664.263.909.498v-.002l1.248 1.207c.146.128.244.3.293.486.002-.006.006-.011.008-.018a.97.97 0 0 0-.301-.968L9.422 9.557v.002a2.015 2.015 0 0 0-1.313-.557zM10.791 13c-.22 0-.436.057-.625.166l-1.867.928.004.002c-.367.185-.69.462-.926.82-.303.46-.408.98-.354 1.48.04-.337.151-.673.354-.98.237-.358.559-.635.926-.82l-.004-.002 1.867-.928a1.257 1.257 0 0 1 1.268.01c.308.184.498.478.55.795l.006-.17a1.13 1.13 0 0 0-.556-1.125c-.2-.12-.423-.176-.643-.176zm3.188.004a1.035 1.035 0 0 0-.561.213c-.328.252-.471.662-.4 1.047l.011.1a1.035 1.035 0 0 1 1.518-.736l1.601.677c.354.14.675.38.92.71.242.325.372.698.412 1.075a2.184 2.184 0 0 0-.412-1.574 2.128 2.128 0 0 0-.92-.711l-1.601-.678a1.034 1.034 0 0 0-.568-.123z"/></svg>
